src/Pure-Dark/16/symbolic/mimetypes/text-x-generic-symbolic.svg

<svg height="16" width="16" xmlns="http://www.w3.org/2000/svg"><path d="M3 0c-.554 0-1 .446-1 1v14c0 .554.446 1 1 1h10c.554 0 1-.446 1-1V5c0-.554-4.446-5-5-5zm.5 1H9v4h4v9.5c0 .277-.223.5-.5.5h-9a.499.499 0 0 1-.5-.5v-13c0-.277.223-.5.5-.5zM5 8v1h6V8zm0 2v1h6v-1zm0 2v1h4v-1z" fill="#f2f2f2" overflow="visible" style="marker:none" color="#bebebe"/></svg>

<?xml version="1.0" encoding="UTF-8" standalone="no"?>
<svg
   height="16"
   width="16"
   version="1.1"
   id="svg1"
   sodipodi:docname="text-x-generic-symbolic.svg"
   inkscape:version="1.4.2 (ebf0e940d0, 2025-05-08)"
   xmlns:inkscape="http://www.inkscape.org/namespaces/inkscape"
   xmlns:sodipodi="http://sodipodi.sourceforge.net/DTD/sodipodi-0.dtd"
   xmlns="http://www.w3.org/2000/svg"
   xmlns:svg="http://www.w3.org/2000/svg">
  <defs
     id="defs1">
      <style
          id="current-color-scheme"
          type="text/css">
          .ColorScheme-Text { color:#f2f2f2; }
          .ColorScheme-NeutralText { color:#f67400; }
          .ColorScheme-PositiveText { color:#37c837; }
          .ColorScheme-NegativeText { color:#f44336; }
          .ColorScheme-Highlight { color:#3daee9; }
      </style>
  </defs>
  <sodipodi:namedview
     id="namedview1"
     pagecolor="#ffffff"
     bordercolor="#000000"
     borderopacity="0.25"
     inkscape:showpageshadow="2"
     inkscape:pageopacity="0.0"
     inkscape:pagecheckerboard="0"
     inkscape:deskcolor="#d1d1d1"
     inkscape:zoom="49.75"
     inkscape:cx="7.9899497"
     inkscape:cy="8"
     inkscape:window-width="1920"
     inkscape:window-height="1011"
     inkscape:window-x="0"
     inkscape:window-y="0"
     inkscape:window-maximized="1"
     inkscape:current-layer="svg1" />
  <path
     id="path1"
     style="fill:currentColor"
     class="ColorScheme-Text"
     d="M 3 0 C 2.446 0 2 0.446 2 1 L 2 15 C 2 15.554 2.446 16 3 16 L 13 16 C 13.554 16 14 15.554 14 15 L 14 5 C 14 4.446 9.554 5.9211895e-16 9 0 L 3 0 z M 3.5 1 L 9 1 L 9 5 L 13 5 L 13 14.5 C 13 14.777 12.777 15 12.5 15 L 3.5 15 A 0.499 0.499 0 0 1 3 14.5 L 3 1.5 C 3 1.223 3.223 1 3.5 1 z M 5 8 L 5 9 L 11 9 L 11 8 L 5 8 z M 5 10 L 5 11 L 11 11 L 11 10 L 5 10 z M 5 12 L 5 13 L 9 13 L 9 12 L 5 12 z " />
</svg>
